icons/qlik.svg

<?xml version="1.0" encoding="UTF-8"?>
<svg width="512px" height="151px" viewBox="0 0 512 151" version="1.1" xmlns="http://www.w3.org/2000/svg" xmlns:xlink="http://www.w3.org/1999/xlink" preserveAspectRatio="xMidYMid">
    <g>
        <path d="M299.947636,79.757511 C297.683564,76.0620919 300.666654,72.961953 300.666654,72.961953 L326.892424,45.9001148 C329.872169,42.7999759 325.58147,42.7999759 325.58147,42.7999759 L301.14154,42.7999759 C296.850841,42.7999759 293.871096,45.9001148 293.871096,45.9001148 L269.668609,71.6509989 C266.688864,74.7511378 266.688864,70.4570943 266.688864,70.4570943 L266.688864,14.1863961 C266.688864,9.89569688 262.398165,9.89569688 262.398165,9.89569688 L243.917725,9.89569688 C239.744075,9.89569688 239.744075,14.0693467 239.744075,14.0693467 L239.744075,131.734166 C239.744075,136.028209 244.038119,136.028209 244.038119,136.028209 L262.398165,136.028209 C266.56847,136.028209 266.56847,131.854559 266.56847,131.854559 L266.56847,111.230442 C266.56847,106.939743 269.668609,103.956653 269.668609,103.956653 L278.370401,95.8501414 L300.068029,132.33279 C302.215051,136.028209 306.50575,136.028209 306.50575,136.028209 L329.75512,136.028209 C334.045819,136.028209 331.781748,132.33279 331.781748,132.33279 L299.947636,79.757511 Z M220.434256,131.734166 L220.434256,46.9736257 C220.434256,42.6795822 216.143557,42.6795822 216.143557,42.6795822 L197.546068,42.6795822 C193.255369,42.6795822 193.255369,46.9736257 193.255369,46.9736257 L193.255369,131.734166 C193.255369,136.028209 197.546068,136.028209 197.546068,136.028209 L216.143557,136.028209 C220.434256,136.028209 220.434256,131.734166 220.434256,131.734166 Z M219.718582,26.108721 L219.718582,13.9489529 C219.718582,13.9489529 219.718582,9.77530314 215.544933,9.77530314 L197.42233,9.77530314 C197.42233,9.77530314 193.252024,9.77530314 193.252024,13.9489529 L193.252024,26.108721 C193.252024,26.108721 193.252024,30.2823708 197.42233,30.2823708 L215.661982,30.2823708 C215.661982,30.2823708 219.718582,30.2823708 219.718582,26.108721 L219.718582,26.108721 Z M173.340237,131.734166 L173.340237,14.3067899 C173.340237,10.0160906 169.049538,10.0160906 169.049538,10.0160906 L150.094212,10.0160906 C145.803512,10.0160906 145.803512,14.3067899 145.803512,14.3067899 L145.803512,131.734166 C145.803512,136.028209 150.094212,136.028209 150.094212,136.028209 L169.049538,136.028209 C173.340237,136.028209 173.340237,131.734166 173.340237,131.734166 Z M130.781048,126.731137 C130.781048,126.731137 133.165513,123.988835 130.423211,121.60437 L115.283698,108.371091 C122.079256,98.2379507 126.132512,86.1985763 126.132512,73.0823467 C126.132512,38.2718334 97.8767694,10.0194349 63.0662561,10.0194349 C28.2523985,10.0160906 0,38.2684892 0,73.0790025 C0,107.89286 28.2557428,136.145259 63.0662561,136.145259 C75.8213044,136.145259 87.6232356,132.33279 97.6393262,125.774675 L114.327237,140.198515 C114.327237,140.198515 117.069539,142.58298 119.454004,139.840678 L130.781048,126.731137 Z M99.428511,72.9652973 C99.428511,93.1111837 83.0950931,109.444602 62.9458624,109.444602 C42.7999759,109.444602 26.466558,93.1111837 26.466558,72.9652973 C26.466558,52.8160665 42.7999759,36.4859929 62.9458624,36.4859929 C83.0950931,36.6030424 99.428511,52.8160665 99.428511,72.9652973 Z" fill="#54565B"></path>
        <path d="M510.369146,128.038747 L490.102865,110.992999 C497.135867,99.786348 501.306172,86.553069 501.306172,72.3666728 C501.306172,32.4260483 468.880124,0 428.942843,0 C389.005563,0 356.579515,32.4260483 356.579515,72.3666728 C356.579515,112.303953 389.005563,144.730001 428.942843,144.730001 C444.440194,144.730001 458.867377,139.840678 470.669308,131.496722 L492.246543,149.619325 C492.246543,149.619325 495.467075,152.361627 498.209377,149.141094 L511.084819,133.881187 C510.964426,133.881187 513.586334,130.663999 510.369146,128.038747 L510.369146,128.038747 Z M473.41161,72.3666728 C473.41161,96.9236523 453.503167,116.832096 428.942843,116.832096 C404.385864,116.832096 384.474076,96.9236523 384.474076,72.3666728 C384.474076,47.8063491 404.385864,27.8979059 428.942843,27.8979059 C453.503167,27.8979059 473.41161,47.8063491 473.41161,72.3666728 Z" fill="#009848"></path>
        <path d="M400.329264,72.3666728 C400.329264,56.6303207 413.086098,43.8734868 428.82245,43.8734868 C444.558802,43.8734868 457.315636,56.6303207 457.315636,72.3666728 C457.315636,88.1030249 444.558802,100.859859 428.82245,100.859859 C413.086098,100.859859 400.329264,88.1030249 400.329264,72.3666728 Z" fill="#54565B"></path>
    </g>
</svg>

<svg xmlns="http://www.w3.org/2000/svg" viewBox="0 0 511.978 150.708">
  <path fill="#54565b" d="M299.948 79.758c-2.264-3.696.719-6.796.719-6.796L326.892 45.9c2.98-3.1-1.31-3.1-1.31-3.1h-24.44c-4.291 0-7.27 3.1-7.27 3.1l-24.203 25.751c-2.98 3.1-2.98-1.194-2.98-1.194v-56.27c0-4.291-4.29-4.291-4.29-4.291h-18.481c-4.174 0-4.174 4.173-4.174 4.173v117.665c0 4.294 4.294 4.294 4.294 4.294h18.36c4.17 0 4.17-4.173 4.17-4.173V111.23c0-4.29 3.1-7.273 3.1-7.273l8.702-8.107 21.698 36.483c2.147 3.695 6.438 3.695 6.438 3.695h23.25c4.29 0 2.026-3.695 2.026-3.695zm-79.514 51.976v-84.76c0-4.294-4.29-4.294-4.29-4.294h-18.598c-4.29 0-4.29 4.294-4.29 4.294v84.76c0 4.294 4.29 4.294 4.29 4.294h18.598c4.29 0 4.29-4.294 4.29-4.294zM219.72 26.11v-12.16s0-4.174-4.174-4.174h-18.123s-4.17 0-4.17 4.174v12.16s0 4.173 4.17 4.173h18.24s4.057 0 4.057-4.173zM173.34 131.734V14.307c0-4.29-4.29-4.29-4.29-4.29h-18.956c-4.29 0-4.29 4.29-4.29 4.29v117.427c0 4.294 4.29 4.294 4.29 4.294h18.956c4.29 0 4.29-4.294 4.29-4.294zm-42.559-5.003s2.385-2.742-.358-5.127l-15.14-13.233c6.796-10.133 10.85-22.172 10.85-35.289 0-34.81-28.256-63.063-63.067-63.063C28.252 10.016 0 38.27 0 73.08c0 34.814 28.256 63.066 63.066 63.066 12.755 0 24.557-3.812 34.573-10.37l16.688 14.424s2.743 2.384 5.127-.358zM99.429 72.965c0 20.146-16.334 36.48-36.483 36.48-20.146 0-36.48-16.334-36.48-36.48 0-20.149 16.334-36.479 36.48-36.479 20.15.117 36.483 16.33 36.483 36.48z"/>
  <path fill="#009848" d="m510.37 128.039-20.267-17.046c7.033-11.207 11.203-24.44 11.203-38.626C501.306 32.426 468.88 0 428.943 0S356.58 32.426 356.58 72.367c0 39.937 32.426 72.363 72.363 72.363 15.497 0 29.924-4.89 41.726-13.233l21.578 18.122s3.22 2.743 5.962-.478l12.876-15.26c-.12 0 2.501-3.217-.716-5.842zm-36.958-55.672c0 24.557-19.909 44.465-44.47 44.465-24.556 0-44.468-19.908-44.468-44.465 0-24.56 19.912-44.47 44.469-44.47 24.56 0 44.469 19.91 44.469 44.47z"/>
  <path fill="#54565b" d="M400.33 72.367c0-15.737 12.756-28.494 28.492-28.494 15.737 0 28.494 12.757 28.494 28.494 0 15.736-12.757 28.493-28.494 28.493-15.736 0-28.493-12.757-28.493-28.493z"/>
</svg>
